X: 34954
T: Rocky Road To Dublin, The
R: slip jig
M: 9/8
K: Amixolydian
efe d2B A3|E2A A2 A Bcd|efe d2 B A2c|B2A G2A Bcd:|
e2a {b}a2 fg2b|e2a {b}a2A Bcd|e2 a{b}a2fg2e|d2B G2A Bcd|
e2a {b}a2fg2d|e2a {b}a2A Bcd|efg fga gfe|d2 B G2A Bcd||
ecA ecAA2 a|ecA ecA Bcd|ecA ecA a2 c|d2 B G2A Bcd|
ecA ecA A2 a|ecA ecA Bcd|efg fga gfe|d2B G2A Bcd||

